src/lib/images/svgs/icon-power-supply.svg

<?xml version="1.0" encoding="UTF-8"?> <svg xmlns="http://www.w3.org/2000/svg" xmlns:xlink="http://www.w3.org/1999/xlink" width="64px" height="64px" viewBox="0 0 64 64" version="1.1"> <g id="surface1"> <path style=" stroke:none;fill-rule:evenodd;fill:rgb(93.72549%,26.666667%,26.666667%);fill-opacity:1;" d="M 55.097656 44.015625 L 8.90625 44.015625 C 7.523438 44.015625 6.402344 42.890625 6.402344 41.511719 L 6.402344 9.691406 C 6.402344 8.304688 7.527344 7.183594 8.90625 7.183594 L 55.09375 7.183594 C 56.476562 7.183594 57.597656 8.308594 57.597656 9.691406 L 57.597656 41.507812 C 57.601562 42.890625 56.476562 44.015625 55.097656 44.015625 Z M 8.90625 8.382812 C 8.183594 8.382812 7.601562 8.96875 7.601562 9.683594 L 7.601562 41.503906 C 7.601562 42.222656 8.191406 42.804688 8.90625 42.804688 L 55.09375 42.804688 C 55.8125 42.804688 56.398438 42.21875 56.398438 41.503906 L 56.398438 9.691406 C 56.398438 8.96875 55.808594 8.386719 55.09375 8.386719 L 8.90625 8.386719 Z M 8.90625 8.382812 "/> <path style=" stroke:none;fill-rule:evenodd;fill:rgb(93.72549%,26.666667%,26.666667%);fill-opacity:1;" d="M 21.886719 34.402344 C 17.289062 34.402344 13.550781 30.664062 13.550781 26.066406 C 13.550781 21.472656 17.289062 17.734375 21.886719 17.734375 C 26.480469 17.734375 30.21875 21.472656 30.21875 26.066406 C 30.21875 30.664062 26.480469 34.402344 21.886719 34.402344 Z M 21.886719 18.929688 C 17.953125 18.929688 14.75 22.132812 14.75 26.066406 C 14.75 29.996094 17.953125 33.199219 21.886719 33.199219 C 25.820312 33.199219 29.019531 29.996094 29.019531 26.066406 C 29.019531 22.136719 25.820312 18.929688 21.886719 18.929688 Z M 21.886719 18.929688 "/> <path style=" stroke:none;fill-rule:evenodd;fill:rgb(93.72549%,26.666667%,26.666667%);fill-opacity:1;" d="M 21.886719 28.925781 C 20.304688 28.925781 19.027344 27.644531 19.027344 26.066406 C 19.027344 24.488281 20.308594 23.207031 21.886719 23.207031 C 23.460938 23.207031 24.742188 24.488281 24.742188 26.066406 C 24.742188 27.644531 23.460938 28.925781 21.886719 28.925781 Z M 21.886719 24.40625 C 19.703125 24.40625 19.703125 27.722656 21.886719 27.722656 C 24.066406 27.722656 24.066406 24.40625 21.886719 24.40625 Z M 21.886719 24.40625 "/> <path style=" stroke:none;fill-rule:evenodd;fill:rgb(93.72549%,26.666667%,26.666667%);fill-opacity:1;" d="M 22.464844 24.484375 C 22.148438 24.484375 21.878906 24.234375 21.863281 23.914062 C 21.769531 21.949219 22.171875 20.464844 23.074219 19.507812 C 24.050781 18.460938 25.785156 18.066406 25.796875 19.074219 C 25.808594 19.964844 24.835938 19.355469 23.925781 20.347656 C 23.28125 21.050781 22.980469 22.265625 23.058594 23.851562 C 23.078125 24.203125 22.789062 24.484375 22.464844 24.484375 Z M 22.464844 24.484375 "/> <path style=" stroke:none;fill-rule:evenodd;fill:rgb(93.72549%,26.666667%,26.666667%);fill-opacity:1;" d="M 29.488281 28.066406 C 28.722656 28.066406 29.140625 27.191406 27.933594 26.566406 C 27.089844 26.125 25.839844 26.148438 24.328125 26.636719 C 23.574219 26.878906 23.207031 25.734375 23.960938 25.492188 C 25.835938 24.890625 27.371094 24.898438 28.53125 25.519531 C 30.089844 26.351562 30.570312 28.066406 29.488281 28.066406 Z M 29.488281 28.066406 "/> <path style=" stroke:none;fill-rule:evenodd;fill:rgb(93.72549%,26.666667%,26.666667%);fill-opacity:1;" d="M 22.507812 34.378906 C 21.90625 34.378906 21.675781 33.582031 22.195312 33.265625 C 22.226562 33.242188 22.789062 32.878906 22.972656 32.042969 C 23.179688 31.109375 22.832031 29.910156 21.96875 28.578125 C 21.539062 27.914062 22.550781 27.261719 22.976562 27.925781 C 25.703125 32.164062 23.1875 34.378906 22.507812 34.378906 Z M 22.507812 34.378906 "/> <path style=" stroke:none;fill-rule:evenodd;fill:rgb(93.72549%,26.666667%,26.666667%);fill-opacity:1;" d="M 16.292969 29.867188 C 14.949219 29.867188 13.46875 28.96875 14.167969 28.242188 C 14.785156 27.605469 15.058594 28.71875 16.394531 28.664062 C 17.347656 28.625 18.414062 27.976562 19.484375 26.796875 C 20.015625 26.210938 20.902344 27.015625 20.371094 27.601562 C 19.039062 29.078125 17.640625 29.867188 16.292969 29.867188 Z M 16.292969 29.867188 "/> <path style=" stroke:none;fill-rule:evenodd;fill:rgb(93.72549%,26.666667%,26.666667%);fill-opacity:1;" d="M 20.28125 25.074219 C 20.1875 25.074219 20.09375 25.050781 20.003906 25.007812 C 18.253906 24.105469 17.171875 23.015625 16.792969 21.757812 C 16.382812 20.394531 16.894531 18.679688 17.78125 19.179688 C 18.5625 19.621094 17.542969 20.152344 17.953125 21.441406 C 18.238281 22.351562 19.140625 23.214844 20.554688 23.941406 C 21.117188 24.226562 20.902344 25.074219 20.28125 25.074219 Z M 20.28125 25.074219 "/> <path style=" stroke:none;fill-rule:evenodd;fill:rgb(93.72549%,26.666667%,26.666667%);fill-opacity:1;" d="M 21.886719 37.261719 C 15.714844 37.261719 10.691406 32.238281 10.691406 26.066406 C 10.691406 19.890625 15.710938 14.875 21.886719 14.875 C 28.054688 14.875 33.082031 19.894531 33.082031 26.070312 C 33.082031 32.242188 28.054688 37.261719 21.886719 37.261719 Z M 21.886719 16.074219 C 16.371094 16.074219 11.890625 20.558594 11.890625 26.070312 C 11.890625 31.582031 16.371094 36.066406 21.886719 36.066406 C 27.398438 36.066406 31.882812 31.582031 31.882812 26.070312 C 31.882812 20.558594 27.394531 16.074219 21.886719 16.074219 Z M 21.886719 16.074219 "/> <path style=" stroke:none;fill-rule:evenodd;fill:rgb(93.72549%,26.666667%,26.666667%);fill-opacity:1;" d="M 52.714844 22.121094 L 40.695312 22.121094 C 40.363281 22.121094 40.09375 21.851562 40.09375 21.519531 L 40.09375 14.574219 C 40.09375 14.238281 40.363281 13.972656 40.695312 13.972656 L 52.714844 13.972656 C 53.042969 13.972656 53.316406 14.238281 53.316406 14.574219 L 53.316406 21.515625 C 53.316406 21.847656 53.046875 22.121094 52.714844 22.121094 Z M 41.292969 20.917969 L 52.113281 20.917969 L 52.113281 15.171875 L 41.292969 15.171875 Z M 41.292969 20.917969 "/> <path style=" stroke:none;fill-rule:evenodd;fill:rgb(93.72549%,26.666667%,26.666667%);fill-opacity:1;" d="M 52.714844 37.21875 L 40.695312 37.21875 C 40.363281 37.21875 40.09375 36.949219 40.09375 36.617188 L 40.09375 26.917969 C 40.09375 26.589844 40.363281 26.320312 40.695312 26.320312 L 52.714844 26.320312 C 53.042969 26.320312 53.316406 26.589844 53.316406 26.917969 L 53.316406 36.625 C 53.316406 36.953125 53.046875 37.21875 52.714844 37.21875 Z M 41.292969 36.019531 L 52.113281 36.019531 L 52.113281 27.519531 L 41.292969 27.519531 Z M 41.292969 36.019531 "/> <path style=" stroke:none;fill-rule:evenodd;fill:rgb(93.72549%,26.666667%,26.666667%);fill-opacity:1;" d="M 47.328125 29.953125 C 46.511719 29.953125 45.476562 30.140625 45.476562 29.351562 C 45.476562 28.5625 46.511719 28.753906 47.328125 28.753906 C 48.113281 28.753906 48.117188 29.953125 47.328125 29.953125 Z M 47.328125 29.953125 "/> <path style=" stroke:none;fill-rule:evenodd;fill:rgb(93.72549%,26.666667%,26.666667%);fill-opacity:1;" d="M 43.578125 34.328125 C 42.78125 34.328125 42.976562 33.269531 42.976562 32.414062 C 42.976562 31.625 44.175781 31.625 44.175781 32.414062 C 44.175781 33.285156 44.371094 34.328125 43.578125 34.328125 Z M 43.578125 34.328125 "/> <path style=" stroke:none;fill-rule:evenodd;fill:rgb(93.72549%,26.666667%,26.666667%);fill-opacity:1;" d="M 49.828125 34.328125 C 49.03125 34.328125 49.226562 33.269531 49.226562 32.414062 C 49.226562 31.625 50.425781 31.625 50.425781 32.414062 C 50.425781 33.285156 50.621094 34.328125 49.828125 34.328125 Z M 49.828125 34.328125 "/> <path style=" stroke:none;fill-rule:evenodd;fill:rgb(93.72549%,26.666667%,26.666667%);fill-opacity:1;" d="M 43.578125 19.160156 C 42.78125 19.160156 42.976562 18.109375 42.976562 17.25 C 42.976562 16.457031 44.175781 16.457031 44.175781 17.25 C 44.175781 18.117188 44.371094 19.160156 43.578125 19.160156 Z M 43.578125 19.160156 "/> <path style=" stroke:none;fill-rule:evenodd;fill:rgb(93.72549%,26.666667%,26.666667%);fill-opacity:1;" d="M 49.828125 19.160156 C 49.03125 19.160156 49.226562 18.109375 49.226562 17.25 C 49.226562 16.457031 50.425781 16.457031 50.425781 17.25 C 50.425781 18.117188 50.621094 19.160156 49.828125 19.160156 Z M 49.828125 19.160156 "/> <path style=" stroke:none;fill-rule:evenodd;fill:rgb(93.72549%,26.666667%,26.666667%);fill-opacity:1;" d="M 36.984375 40.574219 L 34.109375 40.574219 C 33.78125 40.574219 33.507812 40.300781 33.507812 39.972656 L 33.507812 34.972656 C 33.507812 34.644531 33.78125 34.375 34.109375 34.375 L 36.984375 34.375 C 37.3125 34.375 37.585938 34.644531 37.585938 34.972656 L 37.585938 39.972656 C 37.585938 40.300781 37.3125 40.574219 36.984375 40.574219 Z M 34.710938 39.375 L 36.382812 39.375 L 36.382812 35.574219 L 34.710938 35.574219 Z M 34.710938 39.375 "/> </g> </svg>

<svg xmlns="http://www.w3.org/2000/svg" width="64" height="64"><path d="M55.098 44.016H8.906a2.506 2.506 0 0 1-2.504-2.504V9.692a2.507 2.507 0 0 1 2.504-2.508h46.188a2.507 2.507 0 0 1 2.504 2.507v31.817a2.504 2.504 0 0 1-2.5 2.508ZM8.906 8.383c-.722 0-1.304.586-1.304 1.3v31.82c0 .72.59 1.302 1.304 1.302h46.188c.718 0 1.304-.586 1.304-1.301V9.69c0-.722-.59-1.304-1.304-1.304H8.906Zm0 0" style="stroke:none;fill-rule:evenodd;fill:#ef4444;fill-opacity:1"/><path d="M21.887 34.402c-4.598 0-8.336-3.738-8.336-8.336 0-4.593 3.738-8.332 8.336-8.332 4.593 0 8.332 3.739 8.332 8.332 0 4.598-3.739 8.336-8.332 8.336Zm0-15.472c-3.934 0-7.137 3.203-7.137 7.136 0 3.93 3.203 7.133 7.137 7.133 3.933 0 7.133-3.203 7.133-7.133s-3.2-7.136-7.133-7.136Zm0 0" style="stroke:none;fill-rule:evenodd;fill:#ef4444;fill-opacity:1"/><path d="M21.887 28.926a2.858 2.858 0 1 1-.003-5.717 2.858 2.858 0 0 1 .003 5.717Zm0-4.52c-2.184 0-2.184 3.317 0 3.317 2.18 0 2.18-3.317 0-3.317Zm0 0" style="stroke:none;fill-rule:evenodd;fill:#ef4444;fill-opacity:1"/><path d="M22.465 24.484a.604.604 0 0 1-.602-.57c-.093-1.965.309-3.45 1.211-4.406.977-1.047 2.711-1.442 2.723-.434.012.89-.961.281-1.871 1.274-.645.703-.946 1.918-.867 3.504a.603.603 0 0 1-.594.632ZM29.488 28.066c-.765 0-.347-.875-1.554-1.5-.844-.441-2.094-.418-3.606.07-.754.243-1.121-.902-.367-1.144 1.875-.601 3.41-.594 4.57.028 1.559.832 2.04 2.546.957 2.546ZM22.508 34.379c-.602 0-.832-.797-.313-1.113.032-.024.594-.387.778-1.223.207-.934-.141-2.133-1.004-3.465-.43-.664.582-1.316 1.008-.652 2.726 4.238.21 6.453-.47 6.453ZM16.293 29.867c-1.344 0-2.824-.898-2.125-1.625.617-.637.89.477 2.227.422.953-.039 2.02-.687 3.09-1.867.53-.586 1.417.219.886.805-1.332 1.476-2.73 2.265-4.078 2.265ZM20.281 25.074a.643.643 0 0 1-.277-.066c-1.75-.903-2.832-1.992-3.211-3.25-.41-1.363.102-3.078.988-2.578.782.441-.238.972.172 2.261.285.91 1.188 1.774 2.602 2.5.562.286.347 1.133-.274 1.133Zm0 0" style="stroke:none;fill-rule:evenodd;fill:#ef4444;fill-opacity:1"/><path d="M21.887 37.262c-6.172 0-11.196-5.024-11.196-11.196 0-6.175 5.02-11.191 11.196-11.191 6.168 0 11.195 5.02 11.195 11.195 0 6.172-5.027 11.192-11.195 11.192Zm0-21.188c-5.516 0-9.996 4.485-9.996 9.996 0 5.512 4.48 9.996 9.996 9.996 5.511 0 9.996-4.484 9.996-9.996 0-5.511-4.488-9.996-9.996-9.996ZM52.715 22.121h-12.02a.602.602 0 0 1-.601-.601v-6.946a.6.6 0 0 1 .601-.601h12.02c.328 0 .601.265.601.601v6.942c0 .332-.27.605-.601.605Zm-11.422-1.203h10.82v-5.746h-10.82ZM52.715 37.219h-12.02a.602.602 0 0 1-.601-.602v-9.699c0-.328.27-.598.601-.598h12.02c.328 0 .601.27.601.598v9.707c0 .328-.27.594-.601.594Zm-11.422-1.2h10.82v-8.5h-10.82Zm0 0" style="stroke:none;fill-rule:evenodd;fill:#ef4444;fill-opacity:1"/><path d="M47.328 29.953c-.816 0-1.851.188-1.851-.601 0-.79 1.035-.598 1.851-.598.785 0 .79 1.2 0 1.2ZM43.578 34.328c-.797 0-.601-1.058-.601-1.914 0-.789 1.199-.789 1.199 0 0 .871.195 1.914-.598 1.914ZM49.828 34.328c-.797 0-.601-1.058-.601-1.914 0-.789 1.199-.789 1.199 0 0 .871.195 1.914-.598 1.914ZM43.578 19.16c-.797 0-.601-1.05-.601-1.91 0-.793 1.199-.793 1.199 0 0 .867.195 1.91-.598 1.91ZM49.828 19.16c-.797 0-.601-1.05-.601-1.91 0-.793 1.199-.793 1.199 0 0 .867.195 1.91-.598 1.91ZM36.984 40.574H34.11a.607.607 0 0 1-.601-.601v-5c0-.328.273-.598.601-.598h2.875c.328 0 .602.27.602.598v5a.607.607 0 0 1-.602.601Zm-2.273-1.199h1.672v-3.8H34.71Zm0 0" style="stroke:none;fill-rule:evenodd;fill:#ef4444;fill-opacity:1"/></svg>
